X: 33846
T: Reconciliation, The
R: reel
M: 4/4
K: Dmajor
|:D2FD ADBD|ADBD AFEF|D2FD ADBD|AFEF DB,A,B,|
D2FD ADBD|ADBD AFEF|DEDB, A,3F|AFEF D3E:|
|:D2 (3FGA d3B|ABAG FGEF|D2 (3FGA d3c|Beed cABc|
dcdA (3Bcd AF|GFEF GABc|dcdA A2 (3Bcd|AF GECE D2:|

